Obsidian-SemiLight/actions/24s/path-effect-parameter-next.svg

<svg viewBox="0 0 24 24" xmlns="http://www.w3.org/2000/svg"><path d="m17 4v3h3v-3zm1 1h1v1h-1zm-2.392578 10c.0295-.016-.607422.609375-.607422.609375l1.904297 1.890625-1.873047 1.935547.576172.564453 2.392578-2.5zm3.392578 0v5h1v-5zm-15 2v3h3v-3zm1 1h1v1h-1z" fill="#4d4d4d"/><path d="m17 5a12 12 0 0 0 -12 12h1a11 11 0 0 1 11-11z" fill="#3daee9"/></svg>

<svg xmlns="http://www.w3.org/2000/svg" viewBox="0 0 24 24">
  <defs id="defs3051">
    <style type="text/css" id="current-color-scheme">
      .ColorScheme-Text {
        color:#4d4d4d;
      }
      .ColorScheme-Highlight {
        color:#3daee9;
      }
      </style>
  </defs>
 <path 
     style="fill:currentColor;fill-opacity:1;stroke:none" 
     d="M 17 4 L 17 7 L 20 7 L 20 4 L 17 4 z M 18 5 L 19 5 L 19 6 L 18 6 L 18 5 z M 15.607422 15 C 15.636922 14.984 15 15.609375 15 15.609375 L 16.904297 17.5 L 15.03125 19.435547 L 15.607422 20 L 18 17.5 L 15.607422 15 z M 19 15 L 19 20 L 20 20 L 20 15 L 19 15 z M 4 17 L 4 20 L 7 20 L 7 17 L 4 17 z M 5 18 L 6 18 L 6 19 L 5 19 L 5 18 z "
     class="ColorScheme-Text"
     />
 <path 
     style="fill:currentColor;fill-opacity:1;stroke:none" 
     d="M 17 5 A 12 12 0 0 0 5 17 L 6 17 A 11 11 0 0 1 17 6 L 17 5 z "
     class="ColorScheme-Highlight"
     />
</svg>
